X: 31046
T: Paddy Connelly's Stack Of Barley
R: hornpipe
M: 4/4
K: Aminor
cd cB AE ED|EC A,B, CD EG|Ac BG AE ED|EA AG A2 (3GAB|
cd cB AE ED|EC A,B, CD EG|Ac BG AE ED|EC A,B, C2 CD:|
EC EG c2 (3ABc|dc AB cd ef|dB cA GE ED|EA AG A2 ed|
cd cB AE ED|EC A,B, CD EG|Ac BG AE ED|EC A,B, C2 CD:|

